resources/haticons/SVG/envelope.svg

<!-- Generated by IcoMoon.io -->
<svg version="1.1" xmlns="http://www.w3.org/2000/svg" width="24" height="24" viewBox="0 0 24 24">
<title>envelope</title>
<path d="M21.75 3.87h-19.5c-1.241 0-2.25 1.009-2.25 2.25v12.255c0 1.241 1.009 2.25 2.25 2.25h19.5c1.241 0 2.25-1.009 2.25-2.25v-12.255c0-1.237-1.009-2.25-2.25-2.25zM21.383 5.37l-9.383 6.769-9.383-6.769zM21.75 19.125h-19.5c-0.412 0-0.75-0.337-0.75-0.75v-11.959l10.061 7.256c0.131 0.094 0.285 0.143 0.439 0.143s0.308-0.045 0.439-0.143l10.061-7.256v11.959c0 0.413-0.337 0.75-0.75 0.75z"></path>
</svg>

<svg xmlns="http://www.w3.org/2000/svg" width="24" height="24"><path d="M21.75 3.87H2.25A2.252 2.252 0 0 0 0 6.12v12.255a2.252 2.252 0 0 0 2.25 2.25h19.5a2.252 2.252 0 0 0 2.25-2.25V6.12a2.255 2.255 0 0 0-2.25-2.25zm-.367 1.5L12 12.139 2.617 5.37zm.367 13.755H2.25a.752.752 0 0 1-.75-.75V6.416l10.061 7.256c.131.094.285.143.439.143s.308-.045.439-.143L22.5 6.416v11.959c0 .413-.337.75-.75.75z"/></svg>
